assets/svg/icon_login_manage.svg

<svg width="24" height="24" viewBox="0 0 24 24" fill="none" xmlns="http://www.w3.org/2000/svg">
<path d="M19.326 9.72753L19.6504 9.40312C20.1879 8.86563 21.0594 8.86563 21.5969 9.40312C22.1344 9.94062 22.1344 10.8121 21.5969 11.3496L21.2725 11.674M19.326 9.72753C19.326 9.72753 19.3666 10.4169 19.9748 11.0252C20.5831 11.6334 21.2725 11.674 21.2725 11.674M19.326 9.72753L16.3436 12.71C16.1416 12.912 16.0406 13.013 15.9537 13.1243C15.8512 13.2557 15.7634 13.3979 15.6917 13.5483C15.631 13.6758 15.5858 13.8113 15.4954 14.0823L15.2062 14.95L15.1126 15.2307M21.2725 11.674L18.29 14.6564C18.088 14.8584 17.987 14.9594 17.8757 15.0463C17.7443 15.1488 17.6021 15.2366 17.4517 15.3083C17.3242 15.369 17.1887 15.4142 16.9177 15.5046L16.05 15.7938L15.7693 15.8874M15.7693 15.8874L15.4885 15.9809C15.3552 16.0254 15.2081 15.9907 15.1087 15.8913C15.0093 15.7919 14.9746 15.6448 15.0191 15.5115L15.1126 15.2307M15.7693 15.8874L15.1126 15.2307" stroke="#FD4E4E" stroke-width="1.5"/>
<path d="M7.80078 11.8008L11.5 11.8008" stroke="#FD4E4E" stroke-width="1.5" stroke-linecap="round"/>
<path d="M7.80078 8.59961H13.0008" stroke="#FD4E4E" stroke-width="1.5" stroke-linecap="round"/>
<path d="M7.80078 15H9.00078" stroke="#FD4E4E" stroke-width="1.5" stroke-linecap="round"/>
<path d="M16 19.7505C15.0582 20 13.7416 20 11.8008 20H10.2008C7.18379 20 5.6753 20 4.73804 19.0627C3.80078 18.1255 3.80078 16.617 3.80078 13.6V10.4C3.80078 7.38301 3.80078 5.87452 4.73804 4.93726C5.6753 4 7.18379 4 10.2008 4H11.8008C14.8178 4 16.3263 4 17.2635 4.93726C17.6592 5.33289 17.8878 5.83031 18.0199 6.5" stroke="#FD4E4E" stroke-width="1.5" stroke-linecap="round"/>
</svg>

<svg xmlns="http://www.w3.org/2000/svg" width="24" height="24" fill="none"><path stroke="#FD4E4E" stroke-width="1.5" d="m19.326 9.728.324-.325a1.376 1.376 0 0 1 1.947 1.947l-.325.324m-1.946-1.946s.04.689.649 1.297c.608.608 1.297.649 1.297.649m-1.946-1.946-2.982 2.982c-.202.202-.303.303-.39.414q-.154.199-.262.424c-.061.128-.106.263-.197.534l-.289.868-.093.28m6.16-3.556-2.983 2.982a5 5 0 0 1-.414.39q-.199.154-.424.262c-.128.061-.263.106-.534.197l-.868.289-.28.093m0 0-.281.094a.371.371 0 0 1-.47-.47l.094-.28m.656.656-.656-.656"/><path stroke="#FD4E4E" stroke-linecap="round" stroke-width="1.5" d="M7.8 11.8h3.7M7.8 8.6H13M7.8 15H9M16 19.75c-.942.25-2.258.25-4.2.25h-1.6c-3.016 0-4.525 0-5.462-.937s-.937-2.446-.937-5.463v-3.2c0-3.017 0-4.525.937-5.463S7.184 4 10.201 4h1.6c3.017 0 4.525 0 5.463.937.395.396.624.893.756 1.563"/></svg>
